Sources/FrostedUI/Resources/Icons.xcassets/upinTiltedFilled32.imageset/upin-tilted-filled-32.svg

<svg width="32" height="32" viewBox="0 0 32 32" fill="none" xmlns="http://www.w3.org/2000/svg" data-fui-icon="true">
  <path
    d="M1.21973 1.21973C1.51262 0.926834 1.98738 0.926834 2.28027 1.21973L30.7803 29.7197C31.0731 30.0126 31.0731 30.4874 30.7803 30.7803C30.4874 31.0731 30.0126 31.0731 29.7197 30.7803L22.0968 23.1574C21.9419 23.0024 21.6784 23.0605 21.603 23.2663L20.3184 26.7725C19.3751 29.3434 16.0823 30.069 14.1455 28.1328L9.72385 23.7112C9.60669 23.594 9.41674 23.594 9.29959 23.7112L4.91602 28.0947C4.62316 28.3874 4.14734 28.3874 3.85449 28.0947C3.56207 27.8019 3.562 27.327 3.85449 27.0342L8.23902 22.6506C8.35619 22.5334 8.35621 22.3435 8.23906 22.2263L3.81738 17.8037C1.88097 15.8669 2.60649 12.575 5.17773 11.6318L8.68232 10.3454C8.88799 10.2699 8.94599 10.0065 8.79107 9.85162L1.21973 2.28027C0.926834 1.98738 0.926834 1.51262 1.21973 1.21973ZM16.9365 3.7002C18.401 2.23575 20.7748 2.23579 22.2393 3.7002L28.25 9.70996C29.7143 11.1744 29.7144 13.5492 28.25 15.0137L23.3742 19.8894C23.2571 20.0066 23.0671 20.0066 22.95 19.8894L12.0608 9.00022C11.9436 8.88306 11.9436 8.69311 12.0608 8.57595L16.9365 3.7002Z"
    fill="currentColor"
  />
</svg>

<svg xmlns="http://www.w3.org/2000/svg" width="32" height="32" fill="none" data-fui-icon="true" viewBox="0 0 32 32"><path fill="currentColor" d="M1.22 1.22a.75.75 0 0 1 1.06 0l28.5 28.5a.75.75 0 0 1-1.06 1.06l-7.623-7.623a.3.3 0 0 0-.494.11l-1.285 3.506c-.943 2.57-4.236 3.296-6.173 1.36L9.724 23.71a.3.3 0 0 0-.424 0l-4.384 4.384a.751.751 0 0 1-1.062-1.06L8.24 22.65a.3.3 0 0 0 0-.425l-4.422-4.422c-1.936-1.937-1.21-5.229 1.36-6.172l3.505-1.287a.3.3 0 0 0 .11-.493L1.22 2.28a.75.75 0 0 1 0-1.06M16.936 3.7a3.75 3.75 0 0 1 5.303 0l6.011 6.01a3.75 3.75 0 0 1 0 5.304l-4.876 4.875a.3.3 0 0 1-.424 0L12.06 9a.3.3 0 0 1 0-.424z"/></svg>
